plugins/maven/src/main/resources/images/childrenProjects.svg

<svg xmlns="http://www.w3.org/2000/svg" width="12" height="12" viewBox="0 0 12 12">
  <g fill="none" fill-rule="evenodd">
    <path fill="#6E6E6E" d="M10,9 L12,9 L9.5,12 L7,9 L9,9 L9,0 L10,0 L10,9 Z"/>
    <path fill="#40B6E0" d="M0.997331812,3.51334081 L0,8.49629952 L1.3691975,8.49629952 L1.99156041,5.15965116 C1.99156041,5.15965116 2.53094136,4.68909819 2.94584978,4.73187573 C3.3607582,4.77465327 3.3607582,5.20612918 3.3607582,5.20612918 L2.77988641,8.5 L4.1497127,8.5 L4.81293767,5.15965116 C4.81293767,5.15965116 5.26933693,4.68909819 5.72573619,4.73187573 C6.18213545,4.77465327 6.09915377,5.24890673 6.09915377,5.24890673 L5.47679114,8.49629952 L6.88747977,8.49629952 L7.59282408,4.69279867 C7.67580577,4.09021259 7.32013555,3.56874808 6.84598893,3.51334081 C6.3718423,3.45793353 5.89169956,3.57688207 5.47679114,3.83724781 C5.06188272,4.09761354 4.81293767,4.43613341 4.81293767,4.43613341 C4.81293767,4.43613341 4.59880803,3.56874808 3.94162999,3.51334081 C3.28445195,3.45793353 2.98734062,3.61965961 2.69690473,3.79076978 C2.40646883,3.96187996 2.24050547,4.17946815 2.24050547,4.17946815 L2.35481129,3.51334081 L0.997331812,3.51334081 Z"/>
  </g>
</svg>

<svg xmlns="http://www.w3.org/2000/svg" viewBox="0 0 12 12">
  <path d="M10,9h2L9.5,12,7,9H9V0h1Z" fill="#6e6e6e" fill-rule="evenodd"/>
  <path d="M0,8.5H1.36L2,5.13a1.73,1.73,0,0,1,.9-.46c.3,0,.45.2.4.51L2.74,8.5h1.4l.61-3.32a1.69,1.69,0,0,1,1-.46.39.39,0,0,1,.42.36h0a.38.38,0,0,1,0,.15L5.49,8.5h1.4l.7-3.83A1,1,0,0,0,6.9,3.49a1.61,1.61,0,0,0-.31,0,2.83,2.83,0,0,0-1.77.83.87.87,0,0,0-.91-.83h0a2.73,2.73,0,0,0-1.76.83V3.6H1Z" fill="#40b6e0"/>
</svg>
